X:478
T:The Miser's Jewel
S:Colin Hume's website,  colinhume.com  - chords can also be printed below the stave.
Q:1/4=110
M:2/4
L:1/8
C:Thompson, 1765
K:G
P:A
|: "G"G2 Gg | "/"gd dc | "Em"BG GB | "D7"AF ED | "G"G2 Gg | "/"gd dc | "Em"BG "D7"AB | "G"GG/G/ G2 :|
P:B
|: "Em"g2 gb | "D"ag fd | "C"ef ge | "G"dc BG | "Em"g2 gb | "D"ag fd | "C"eg "D7"fa | "G"g4 :|
P:C
|: "G"B2 (3BGB | "D/F#"A2 (3AFA | "Em"B2 (3BGB | "G/D"(3BdB "D7"A2 | "G"B2 (3BGB | "D7"A2 (3AFA | "G"(3BdB "D7"(3AcA | "G"G2G2 :|

